X:19
T:Dunphy's
Z: id:dc-hornpipe-18
M:C|
L:1/8
K:G Major
(3DEF|GDBD GBdg|feed ecAG|FADG FGAc|BGAF GFED|!
GDBD GBdg|feed ecAG|FAdB cAFG|(3ABA GF G2:|!
Bc|d2Bd gdBd|gbaf gdBd|gefd ed (3Bcd|ed^ce d2 ef|!
gedc BGBd|ecAG FADF|GBdB cAFG|(3ABA GF G2:|!

